X: 172
T:Keny Gilles of Portnalong
M:6/8
L:1/8
F:http://blackrosetheband.googlepages.com/ABCTUNES.ABC May 2009
C:Composer: P. MacFarquhar
S:Source: The Angus Sessions Podcast
R:jig
K:A
A2A e2c|efa f2e|faa AAA|fec c2B|
A2A e2c|efa f2e|eff fec|ecB A3:|
a3 A2A|cea f2e|faa A2A|fec c2B|
a3 A2A|efa f2e|eff fec|ecA A3|
a3 A2A|cea f2e|faa A2A|fec c2B|
A2A e2c|efa f2e|eff fec|BAA A2e|
|:AAA cBc|Ace fee|faa ABA|fec cBB|
ABA cBc|Ace fee|eff fec|BAA Ace:|
c2e aga|Ace fee|faa ABA|fec cBB|
c2e aga|Ace fee|eff fec|BAA A3:|

